X: 1
T: East Neuk o' Fife
C: Trad
O: Scotland
R: Reel
N: H&C p.60
N: SV p.22 (lots of variations)
N: Hardie p.31
N: Williamson p.53
N: Hunter 309
N: Skye p.170
N: BSFC V-13
N: Allan's p.32
N: Hazel Stewart on Thistledown 2A
D: Scottish Traditional Fiddle Music tape
D: Alastair Hardie on "The Fiddler's Companion" tape
Z: 1999 John Chambers <jc:trillian.mit.edu>
M: 4/4
K: G
|: D2 \
| "G"G2G2 G2Bc | dBGB dBGB |\
"Am"A2A2 A2gf | "C"e2ed "D7"efge |\
"G"dcBA GABc |
| "G"dBGB d2cB |\
"Am"ABcd "B7"BcAB | "Em"G2E2 E2 :: "D7"dc |\
"G"B2G2 G2dc | B2G2 G2ed |
| "Am"c2A2 A2fg | "D7"a2A2 A2Bc |\
"G"d2G2 B2G2 | "C"gfge "G"d2cB |\
"Am"ABcd "B7"BcAB | "Em"G2E2 E2 :|
